melody-of-light/img/icons/icomoon/mail.svg

<svg width="16" height="16" viewBox="0 0 16 16" fill="none" xmlns="http://www.w3.org/2000/svg">
<path fill-rule="evenodd" clip-rule="evenodd" d="M3.33333 3.83337C2.8731 3.83337 2.5 4.20647 2.5 4.66671V11.3334C2.5 11.7936 2.8731 12.1667 3.33333 12.1667H12.6667C13.1269 12.1667 13.5 11.7936 13.5 11.3334V4.66671C13.5 4.20647 13.1269 3.83337 12.6667 3.83337H3.33333ZM1.5 4.66671C1.5 3.65419 2.32081 2.83337 3.33333 2.83337H12.6667C13.6792 2.83337 14.5 3.65419 14.5 4.66671V11.3334C14.5 12.3459 13.6792 13.1667 12.6667 13.1667H3.33333C2.32081 13.1667 1.5 12.3459 1.5 11.3334V4.66671Z" fill="#93939F"/>
<path fill-rule="evenodd" clip-rule="evenodd" d="M1.58403 4.38933C1.7372 4.15956 2.04764 4.09748 2.2774 4.25065L8.00005 8.06575L13.7227 4.25065C13.9525 4.09748 14.2629 4.15956 14.4161 4.38933C14.5693 4.61909 14.5072 4.92953 14.2774 5.0827L8.2774 9.0827C8.10945 9.19467 7.89065 9.19467 7.7227 9.0827L1.7227 5.0827C1.49294 4.92953 1.43085 4.61909 1.58403 4.38933Z" fill="#93939F"/>
</svg>

<svg width="16" height="16" fill="none" xmlns="http://www.w3.org/2000/svg"><path fill-rule="evenodd" clip-rule="evenodd" d="M3.333 3.833a.833.833 0 00-.833.834v6.666c0 .46.373.834.833.834h9.334c.46 0 .833-.373.833-.834V4.667a.833.833 0 00-.833-.834H3.333zM1.5 4.667c0-1.013.82-1.834 1.833-1.834h9.334c1.012 0 1.833.821 1.833 1.834v6.666c0 1.013-.82 1.834-1.833 1.834H3.333A1.833 1.833 0 011.5 11.333V4.667z" fill="#93939F"/><path fill-rule="evenodd" clip-rule="evenodd" d="M1.584 4.39a.5.5 0 01.693-.14L8 8.067l5.723-3.815a.5.5 0 01.554.832l-6 4a.5.5 0 01-.554 0l-6-4a.5.5 0 01-.139-.694z" fill="#93939F"/></svg>
